X:1
T:The Death of Parcy Reed
M:4/4
L:1/8
K:C
 G| B2A-GG-A B2|A-BA-G E2 D3/2- E/2| G3 A G2A-B| c2 e2 d3 d|e-de-g d2 AB|\
c-BA-G E2 DB,| D2 D2 d2 dc| B2 A2 G3||
